X:1
T:Nunc dimittis
T:Nunc dimittis
T:John Farmer
T:Source : The Whole Booke of Psalmes---London---T.Est---1604. Editor André Vierendeels (20/05/14).
C:John Farmer
%%score [ 1 2 3 4 ]
L:1/8
Q:1/4=120
M:4/4
K:C
V:1 treble nm="Soprano" snm="S"
V:2 treble nm="Alto" snm="A"
V:3 treble-8 nm="Tenor" snm="T"
V:4 bass nm="Bass" snm="B"
V:1
 E2 G4 G2 | A2 B2 c4 | B2 G4 G2 | ^F4 G2 B2 | A4 !fermata!G4 | E2 G4 G2 | A2 B2 c4 | B2 G4 G2 | %8
w: O Lord, be-|cause my heart's|de- sire, hath|wish- ed long|to see:|my on- ly|Lord & Sa-|vi- our, thy|
w: Thou suf- ferest|thy ser- vant|now _ in|peace for to|de- part:|ac- cor- ding|to thy ho-|ly word, which|
w: Whom thou mer-|ci- ful- ly|hast set, of|time a- boun-|dant grace:|in o- pen|sight & vi-|si- ble, be-|
 ^F4 G2 B2 | A4 !fermata!G4 | E2 G3 A B2 | c4 B2 A2- | A2 A2 ^G4 | A2 c4 A2 | B2 A2 !fermata!A4 | %15
w: sonne be- fore|I dye:|the joy _ &|health of all|_ man kind,|de- si- red|long be- fore,|
w: light- te- net|my hart,|be- cause _ mine|eyes, which thou|_ hast made,|to give my|bo- dy light:|
w: fore all peo-|ples face,|The Gen- * tiles|to il- lu-|* mi- nate,|and Sa- than|o- ver- quell:|
 B4 A2 G2 | G2 G2 G2 ^F2 | G4 c2 A2- | A2 G2 E2 ^F2 | !fermata!G8 |] %20
w: which now be-|come in- to the|world, of mer-|* cy brin- ging|store.|
w: have now be-|held thy swing _|health which is|_ the Lord of|might.|
w: and eke to|be the glo- ry|of thy peop-|* ple Is- ra-|el.|
V:2
 C2 E4 D2 | F2 F2 G4 | G2 E4 D2 | D4 B,2 D2 | D4 !fermata!B,4 | C2 E4 D2 | F2 F2 G4 | G2 E4 D2 | %8
w: O Lord, be-|cause my heart's|de- sire, hath|wish- ed long|to see:|my on- ly|Lord & Sa-|vi- our, thy|
w: Thou suf- ferest|thy ser- vant|now _ in|peace for to|de- part:|ac- cor- ding|to thy ho-|ly word, which|
w: Whom thou mer-|ci- ful- ly|hast set, of|time a- boun-|dant grace:|in o- pen|sight & vi-|si- ble, be-|
 D4 B,2 D2 | D4 !fermata!B,4 | C2 E4 G2 | G4 G2 E2- | E2 E2 E4 | F2 E4 D2 | G2 E2 !fermata!^F4 | %15
w: sonne be- fore|I dye:|the joy &|health of all|_ man kind,|de- di- red|long be- fore,|
w: light- te- net|my hart,|be- cause mine|eyes, which thou|_ hast made,|to give my|bo- dy light:|
w: fore all peo-|ples face.|The Gen- tiles|to il- lu-|* mi- nate,|and Sa- than|o- ver- quell:|
 G4 F2 D2 | E2 D2 D2 D2 | B,4 E4 | A,2 D2 C2 D2 | !fermata!D8 |] %20
w: which now be-|come in- to the|world, of|mer- cy brin- ging|store|
w: have now be-|held _ thy swing|health which|is the Lord of|might.|
w: and eke to|be the glo- ry|of thy|peop- ple Is- ra-|el.|
V:3
 G2 c4 B2 | c2 d2 e4 | d2 c4 B2 | A4 G2 G2 | ^F4 !fermata!G4 | G2 c4 B2 | c2 d2 e4 | d2 c4 B2 | %8
w: O Lord, be-|cause my hearths|de- sire, hath|wish- ed long|to see:|my on- ly|Lord & Sa-|vi- or, thy|
w: Thou suf- ferest|thy ser- vant|now _ in|peace for to|de- part:|ac- cor- ding|to thy ho-|ly word, which|
w: Whom thou mer-|ci- ful- ly|hast set, of|time a- boun-|dant grace:|in o- pen|sight & vi-|si- ble, be-|
 A4 G2 G2 | ^F4 !fermata!G4 | G2 c4 d2 | e4 d2 c2- | c2 c2 B4 | d2 g4 f2 | e2 e2 !fermata!d4 | %15
w: sonne be- fore|I dye:|the joy &|health of all|_ man kind,|de- si- red|long be- fore,|
w: light- te- net|my hart,|be- came mine|eyes, which thou|_ hast made,|to give my|bo- dy light:|
w: fore all peo-|ples face.|The Gen- tiles|to il- lu-|* mi- nate,|and Sa- than|o- ver- quell:|
 d4 A2 B2 | c2 B2 A2 A2 | G4 E4 | ^F2 G2 A2 A2 | !fermata!G8 |] %20
w: which- now be-|come in- to the|world, of|mer- cy brin- ging|store.|
w: have now be-|held thy _ swing|health which|is the Lord of|might.|
w: and eke to|be the glo- ry|of thy|peop- ple Is- ra-|el.|
V:4
 C,2 C,4 G,2 | F,E, D,2 C,4 | G,,2 C,4 G,2 | D,4 E,2 B,,2 | D,4 !fermata!G,,4 | C,2 C,4 G,2 | %6
w: O Lord, be-|cause my hearths _|de- sire, hath|wish- ed long|to see:|my on- ly|
w: Thou suf- ferest|thy ser- vant _|now _ in|peace for to|de- part:|ac- cor- ding|
w: Whom thou mer-|ci- ful- ly _|hast set, of|time a- boun-|dant grance:|in o- pen|
 F,E, D,2 C,4 | G,,2 C,4 G,2 | D,4 E,2 B,,2 | D,4 !fermata!G,,4 | C,2 C,4 G,,2 | C,4 G,2 A,2- | %12
w: Lord & Sa- vi-|* our, thy|sonne be- fore|I dye:|the joy &|health of all|
w: to thy ho- *|hy word, which|light- te- net|my hart,|be- came mine|eyes, which thou|
w: sight & vi- *|si- ble, be-|fore all peo-|ples face.|The Gen- tiles|to il- lu-|
 A,2 A,,2 E,4 | D,2 C,4 D,2 | G,,2 A,,2 !fermata!D,4 | G,,4 D,2 G,2 | C,2 G,,2 D,2 D,2 | %17
w: _ man kind,|de- si- red|long be- fore,|which now be-|come in- to the|
w: _ hast made,|to give my|bo- dy light:|have now be-|held thy _ swing|
w: * mi- nate,|and Sa- than|o- ver- quell:|and eke to|be the glo- ry|
 G,,4 A,,4 | D,2 B,,2 A,,2 D,2 | !fermata!G,,8 |] %20
w: world, of|mer- cy brin- ging|store.|
w: health which|is the Lord of|might.|
w: of thy|peop- ple Is- ra-|el.|

